X:1
T:O Virtus Sapientiae
T:O Virtus Sapientiae
T:Hildegard von Bingen (1098-1179)
C:Hildegard von Bingen (1098-1179)
L:1/8
Q:1/4=52
M:1/8
K:C
V:1 treble nm="Stemmer" snm="St."
V:1
 !stemless!E | !stemless!B | !stemless!A | !stemless!B | !stemless!e | !stemless!d | !stemless!c | %7
w: O|_||||||
 !stemless!B | !stemless!A | !stemless!G | !stemless!G | !stemless!G/ !stemless!A/ | %12
w: |||||
 !stemless!B/ !stemless!c/- | !stemless!c/ !stemless!B/- | !stemless!B/ !stemless!A/- | %15
w: |||
 !stemless!A/ !stemless!G/- | !stemless!G/ !stemless!F/- | !stemless!F/ !stemless!E/- | %18
w: |||
 !stemless!E/ !stemless!E/- | !stemless!E/ !stemless!G/- | !stemless!G/ !stemless!E/- | %21
w: * vir-|||
 !stemless!E/ !stemless!D/- | !stemless!D/ !stemless!E/- | !stemless!E/ !stemless!E/ | %24
w: |* tus|_ _|
 !stemless!F/ !stemless!G/- | !stemless!G/ !stemless!B/- | !stemless!B/ !stemless!B/- | %27
w: |* Sa-|* pi-|
 !stemless!B/ !stemless!d/- | !stemless!d/ !stemless!c/- | !stemless!c/ !stemless!B/- | %30
w: |* en-||
 !stemless!B/ !stemless!e/- | !stemless!e/ !stemless!d/- | !stemless!d/ !stemless!c/- | %33
w: |||
 !stemless!c/ !stemless!B/- | !stemless!B/ !stemless!A/- | !stemless!A/ !stemless!G/- | %36
w: |* ti-||
 !stemless!G/ !stemless!A/- | !stemless!A/ !stemless!B/- | !stemless!B/ !stemless!c/- | %39
w: |* ae,|_ _|
 !stemless!c/ !stemless!c/- | !stemless!c/ !stemless!B/- | !stemless!B/ !stemless!c/- | %42
w: ||* quae|
 !stemless!c/ !stemless!A/- | !stemless!A/ !stemless!G/- | !stemless!G/ !stemless!A/- | %45
w: _ _||* cir-|
 !stemless!A/ !stemless!A/- | !stemless!A/ !stemless!G/- | !stemless!G/ !stemless!F/- | %48
w: ||* cu-|
 !stemless!F/ !stemless!E/- | !stemless!E/ !stemless!D/- | !stemless!D/ !stemless!G/- | %51
w: |* i-|* ens|
 !stemless!G/ !stemless!A/- | !stemless!A/ !stemless!c/- | !stemless!c/ !stemless!B/- | %54
w: * cir-|* cu-||
 !stemless!B/ !stemless!A/- | !stemless!A/ !stemless!B/- | !stemless!B/ !stemless!B/- | %57
w: * i-|* sti|* com-|
 !stemless!B/ !stemless!d/- | !stemless!d/ !stemless!e/- | !stemless!e/ !stemless!e/- | %60
w: * pre-|* hen-|* den-|
 !stemless!e/ !stemless!e/- | !stemless!e/ !stemless!d/- | !stemless!d/ !stemless!c/- | %63
w: * do|* o-|* mni-|
 !stemless!c/ !stemless!B/- | !stemless!B/ !stemless!A/- | !stemless!A/ !stemless!B/- | %66
w: ||* a|
 !stemless!B/ !stemless!B/- | !stemless!B/ !stemless!A/- | !stemless!A/ !stemless!B/- | %69
w: * in|_ _|* un-|
 !stemless!B/ !stemless!c/- | !stemless!c/ !stemless!A/- | !stemless!A/ !stemless!G/- | %72
w: |* a|_ _|
 !stemless!G/ !stemless!F/- | !stemless!F/ !stemless!E/- | !stemless!E/ !stemless!D/- | %75
w: * vi-||* a,|
 !stemless!D/ !stemless!E/- | !stemless!E/ !stemless!F/- | !stemless!F/ !stemless!G/- | %78
w: * quae|* ha-|* bet|
 !stemless!G/ !stemless!F/- | !stemless!F/ !stemless!E/- | !stemless!E/ !stemless!E/- | %81
w: * vi-||* tam,|
 !stemless!E/ !stemless!B/- | !stemless!B/ !stemless!A/- | !stemless!A/ !stemless!B/- | %84
w: * tres|_ _|* a-|
 !stemless!B/ !stemless!c/- | !stemless!c/ !stemless!A/- | !stemless!A/ !stemless!G/- | %87
w: |* las|_ _|
 !stemless!G/ !stemless!A/- | !stemless!A/ !stemless!c/- | !stemless!c/ !stemless!c/- | %90
w: * ha-|||
 !stemless!c/ !stemless!B/- | !stemless!B/ !stemless!B/- | !stemless!B/ !stemless!E/- | %93
w: |* bens,|* qua-|
 !stemless!E/ !stemless!D/- | !stemless!D/ !stemless!G/- | !stemless!G/ !stemless!G/ | %96
w: |* rum|_ _|
 !stemless!A/ !stemless!B/- | !stemless!B/ !stemless!B/- | !stemless!B/ !stemless!d/- | %99
w: |* un-|* a|
 !stemless!d/ !stemless!e/- | !stemless!e/ !stemless!e/- | !stemless!e/ !stemless!d/- | %102
w: _ _|* in|_ _|
 !stemless!d/ !stemless!g/- | !stemless!g/ !stemless!e/- | !stemless!e/ !stemless!d/- | %105
w: * al-|* tum|_ _|
 !stemless!d/ !stemless!c/- | !stemless!c/ !stemless!c/- | !stemless!c/ !stemless!B/- | %108
w: |||
 !stemless!B/ !stemless!A/- | !stemless!A/ !stemless!G/- | !stemless!G/ !stemless!A/- | %111
w: * vo-|||
 !stemless!A/ !stemless!B/- | !stemless!B/ !stemless!E/- | !stemless!E/ !stemless!D/- | %114
w: * lat,|* et|_ _|
 !stemless!D/ !stemless!G/- | !stemless!G/ !stemless!A/- | !stemless!A/ !stemless!B/- | %117
w: * al-|* te-|* ra|
 !stemless!B/ !stemless!c/- | !stemless!c/ !stemless!B/- | !stemless!B/ !stemless!A/- | %120
w: * de|_ _|* ter-|
 !stemless!A/ !stemless!G/- | !stemless!G/ !stemless!F/- | !stemless!F/ !stemless!E/- | %123
w: * ra|* su-||
 !stemless!E/ !stemless!D/- | !stemless!D/ !stemless!E/- | !stemless!E/ !stemless!E/- | %126
w: |* dat,|* et|
 !stemless!E/ !stemless!B/- | !stemless!B/ !stemless!B/- | !stemless!B/ !stemless!A/- | %129
w: _ _||* ter-|
 !stemless!A/ !stemless!B/- | !stemless!B/ !stemless!B/- | !stemless!B/ !stemless!B/- | %132
w: * ti-|* a|* un-|
 !stemless!B/ !stemless!d/- | !stemless!d/ !stemless!e/- | !stemless!e/ !stemless!d/- | %135
w: * di-|* que|_ _|
 !stemless!d/ !stemless!c/- | !stemless!c/ !stemless!B/- | !stemless!B/ !stemless!A/- | %138
w: * vo-|||
 !stemless!A/ !stemless!B/- | !stemless!B/ !stemless!B/- | !stemless!B/ !stemless!c/- | %141
w: * lat.|* Laus|_ _|
 !stemless!c/ !stemless!A/- | !stemless!A/ !stemless!G/- | !stemless!G/ !stemless!A/- | %144
w: * ti-||* bi|
 !stemless!A/ !stemless!B/- | !stemless!B/ !stemless!B/ | !stemless!c/ !stemless!d/- | %147
w: * sit,|_ _||
 !stemless!d/ !stemless!c/- | !stemless!c/ !stemless!B/- | !stemless!B/ !stemless!A/- | %150
w: * si-||* cut|
 !stemless!A/ !stemless!G/- | !stemless!G/ !stemless!A/- | !stemless!A/ !stemless!G/- | %153
w: _ _|* te|_ _|
 !stemless!G/ !stemless!F/- | !stemless!F/ !stemless!E/- | !stemless!E/ !stemless!D/- | %156
w: * de-||* cet,|
 !stemless!D/ !stemless!F/- | !stemless!F/ !stemless!F/ | !stemless!G/ !stemless!A/- | %159
w: * O|_ _||
 !stemless!A/ !stemless!G/- | !stemless!G/ !stemless!F/- | !stemless!F/ !stemless!E/- | %162
w: |* Sa-||
 !stemless!E/ !stemless!D/- | !stemless!D/ !stemless!C/- | !stemless!C/ !stemless!D/- | %165
w: * pi-||* en-|
 !stemless!D/ !stemless!E/- | !stemless!E/ !stemless!G/- | !stemless!G/ !stemless!G/- | %168
w: * ti-|||
 !stemless!G/ !stemless!E/- | !stemless!E/ !stemless!E/ | %170
w: |* a.|

